docs/images/icons/linkedin.svg

<?xml version="1.0" encoding="UTF-8"?>
<svg xmlns="http://www.w3.org/2000/svg" xmlns:xlink="http://www.w3.org/1999/xlink" width="14px" height="16px" viewBox="0 0 14 16" version="1.1">
<g id="surface1">
<path style=" stroke:none;fill-rule:nonzero;fill:rgb(0%,0%,0%);fill-opacity:1;" d="M 3.132812 14 L 0.230469 14 L 0.230469 4.652344 L 3.132812 4.652344 Z M 1.679688 3.378906 C 0.753906 3.378906 0 2.609375 0 1.679688 C 0 0.753906 0.753906 0 1.679688 0 C 2.609375 0 3.363281 0.753906 3.363281 1.679688 C 3.363281 2.609375 2.609375 3.378906 1.679688 3.378906 Z M 13.996094 14 L 11.101562 14 L 11.101562 9.449219 C 11.101562 8.367188 11.078125 6.976562 9.589844 6.976562 C 8.082031 6.976562 7.851562 8.152344 7.851562 9.371094 L 7.851562 14 L 4.953125 14 L 4.953125 4.652344 L 7.734375 4.652344 L 7.734375 5.929688 L 7.777344 5.929688 C 8.164062 5.195312 9.109375 4.417969 10.523438 4.417969 C 13.460938 4.417969 14 6.351562 14 8.867188 L 14 14 Z M 13.996094 14 "/>
</g>
</svg>

<svg xmlns="http://www.w3.org/2000/svg" width="14" height="16"><path d="M3.133 14H.23V4.652h2.903zM1.68 3.379c-.926 0-1.68-.77-1.68-1.7a1.682 1.682 0 013.363 0c0 .93-.754 1.7-1.683 1.7zM13.996 14h-2.894V9.45c0-1.083-.024-2.473-1.512-2.473-1.508 0-1.738 1.175-1.738 2.394V14H4.953V4.652h2.781V5.93h.043c.387-.735 1.332-1.512 2.746-1.512 2.938 0 3.477 1.934 3.477 4.45V14zm0 0" id="surface1"/></svg>
